categories/24/applications-internet.svg

<?xml version="1.0" encoding="UTF-8" standalone="no"?>
<!-- Created with Inkscape (http://www.inkscape.org/) -->

<svg
   xmlns:dc="http://purl.org/dc/elements/1.1/"
   xmlns:cc="http://creativecommons.org/ns#"
   xmlns:rdf="http://www.w3.org/1999/02/22-rdf-syntax-ns#"
   xmlns:svg="http://www.w3.org/2000/svg"
   xmlns="http://www.w3.org/2000/svg"
   xmlns:xlink="http://www.w3.org/1999/xlink"
   xmlns:inkscape="http://www.inkscape.org/namespaces/inkscape"
   version="1.0"
   width="24"
   height="24"
   id="svg2509">
  <metadata
     id="metadata30">
    <rdf:RDF>
      <cc:Work
         rdf:about="">
        <dc:format>image/svg+xml</dc:format>
        <dc:type
           rdf:resource="http://purl.org/dc/dcmitype/StillImage" />
      </cc:Work>
    </rdf:RDF>
  </metadata>
  <defs
     id="defs2511">
    <linearGradient
       id="linearGradient8838">
      <stop
         id="stop8840"
         style="stop-color:#000000;stop-opacity:1"
         offset="0" />
      <stop
         id="stop8842"
         style="stop-color:#000000;stop-opacity:0"
         offset="1" />
    </linearGradient>
    <radialGradient
       cx="62.625"
       cy="4.625"
       r="10.625"
       fx="62.625"
       fy="4.625"
       id="radialGradient2493"
       xlink:href="#linearGradient8838"
       gradientUnits="userSpaceOnUse"
       gradientTransform="matrix(1.1294118,0,0,0.2823525,-58.729414,19.694118)" />
    <linearGradient
       id="linearGradient3707-319-631">
      <stop
         id="stop4637"
         style="stop-color:#254b6d;stop-opacity:1"
         offset="0" />
      <stop
         id="stop4639"
         style="stop-color:#415b73;stop-opacity:1"
         offset="0.5" />
      <stop
         id="stop4641"
         style="stop-color:#6195b5;stop-opacity:1"
         offset="1" />
    </linearGradient>
    <linearGradient
       x1="20"
       y1="43"
       x2="20"
       y2="2.6887112"
       id="linearGradient2507"
       xlink:href="#linearGradient3707-319-631"
       gradientUnits="userSpaceOnUse"
       gradientTransform="matrix(0.5277005,0,0,0.5276885,-0.8746521,-0.4544475)" />
    <linearGradient
       id="linearGradient2867-449-88-871-390-598-476-591-434-148">
      <stop
         id="stop4627"
         style="stop-color:#51cfee;stop-opacity:1"
         offset="0" />
      <stop
         id="stop4629"
         style="stop-color:#49a3d2;stop-opacity:1"
         offset="0.26238" />
      <stop
         id="stop4631"
         style="stop-color:#3470b4;stop-opacity:1"
         offset="0.704952" />
      <stop
         id="stop4633"
         style="stop-color:#273567;stop-opacity:1"
         offset="1" />
    </linearGradient>
    <radialGradient
       cx="61.240059"
       cy="-8.7256308"
       r="9.7552834"
       fx="61.240059"
       fy="-8.7256308"
       id="radialGradient2505"
       xlink:href="#linearGradient2867-449-88-871-390-598-476-591-434-148"
       gradientUnits="userSpaceOnUse"
       gradientTransform="matrix(0,1.8972225,-1.8972215,0,-4.5544529,-111.73788)" />
    <linearGradient
       id="linearGradient4873">
      <stop
         id="stop4875"
         style="stop-color:#ffffff;stop-opacity:1"
         offset="0" />
      <stop
         id="stop4877"
         style="stop-color:#ffffff;stop-opacity:0"
         offset="1" />
    </linearGradient>
    <linearGradient
       x1="63.397362"
       y1="-12.489107"
       x2="63.397362"
       y2="5.4675598"
       id="linearGradient2485"
       xlink:href="#linearGradient4873"
       gradientUnits="userSpaceOnUse"
       gradientTransform="matrix(1.0862728,0,0,1.0862481,-55.56661,15.813638)" />
  </defs>
  <g
     id="layer1">
    <path
       d="m 24,21 c 0,1.656854 -5.372583,3 -12,3 C 5.3725828,24 -2.5e-7,22.656854 -2.5e-7,21 -2.5e-7,19.343146 5.3725828,18 12,18 c 6.627417,0 12,1.343146 12,3 l 0,0 z"
       inkscape:connector-curvature="0"
       id="path8836"
       style="opacity:0.3;fill:url(#radialGradient2493);fill-opacity:1;fill-rule:evenodd;stroke:none;stroke-width:0.99999988;marker:none;visibility:visible;display:inline;overflow:visible" />
    <path
       d="M 22.500024,11.999616 C 22.500024,17.798799 17.798662,22.5 12.000144,22.5 6.2010956,22.5 1.5000001,17.798745 1.5000001,11.999616 c 0,-5.7989178 4.7010955,-10.4996408 10.5001439,-10.4996408 5.798518,0 10.49988,4.700723 10.49988,10.4996408 l 0,0 z"
       inkscape:connector-curvature="0"
       id="path6495"
       style="fill:url(#radialGradient2505);fill-opacity:1;fill-rule:nonzero;stroke:url(#linearGradient2507);stroke-width:0.99999994;stroke-miterlimit:4;stroke-dasharray:none" />
    <path
       d="M 12.187974,1.9041252 10.949801,2.047707 9.5878085,2.42461 C 9.703826,2.3834051 9.8213585,2.3384272 9.9415727,2.2989756 L 9.782379,2.0118117 9.2517342,2.1015504 8.9864098,2.352819 8.5795814,2.4066622 8.2081297,2.5861398 8.0312483,2.6758785 7.9781832,2.7476695 7.7128609,2.8015128 7.5536686,3.1425201 7.3414086,2.7117739 7.2706565,2.8912516 7.3060353,3.3758408 6.9699596,3.6630049 6.7753899,4.1834897 l 0.4068292,0 0.1591922,-0.3410072 0.053066,-0.1256344 C 7.5733557,3.5884928 7.7429341,3.4455474 7.9251225,3.3219976 l 0.4245161,0.143582 C 8.6260304,3.6561145 8.9043642,3.8496622 9.1809845,4.0399077 L 9.5878085,3.6630049 9.1279159,3.4655796 8.9156578,3.0348336 8.1373777,2.9450948 8.1196887,2.8553561 8.4557636,2.9271471 8.6503348,2.7297217 9.0748501,2.6399829 C 9.175311,2.5904068 9.2741359,2.5546995 9.3755498,2.5143488 l -0.2653236,0.2512684 0.9551628,0.664067 0,0.3948506 L 9.6939365,4.2014375 10.189207,5.2065124 10.525282,5.0090857 10.9498,4.3450196 c 0.596838,-0.1872327 1.134748,-0.4051036 1.698068,-0.664067 l -0.03538,0.2512686 0.283009,0.1974252 0.49527,-0.3410073 -0.247634,-0.287164 -0.336077,0.1974253 -0.106129,-0.035895 c 0.02438,-0.011303 0.04627,-0.024406 0.07075,-0.035895 l 0.495272,-1.2922396 -1.078979,-0.430746 z m -4.8465654,1.9383573 0.4068284,0.2871639 0.3360756,0 0,-0.3410073 -0.4068276,-0.1794774 -0.3360764,0.2333208 0,0 z m 9.3924314,-0.2333208 -0.725217,0.1794774 -0.45989,0.305112 0,0.2692158 -0.725219,0.4666413 0.141507,0.6999638 0.424517,-0.305113 0.265323,0.305113 0.3007,0.1794774 0.194568,-0.5204858 -0.106127,-0.3051112 0.106127,-0.215374 0.424517,-0.3948498 0.194571,0 -0.194571,0.4307473 0,0.3948493 c 0.174974,-0.048327 0.351587,-0.067148 0.530646,-0.08974 l -0.495269,0.3589565 -0.03538,0.2153719 -0.566022,0.4845904 -0.583711,-0.1435832 0,-0.3410072 -0.265322,0.1794779 0.123818,0.3051125 -0.424518,0 -0.229946,0.3948504 -0.28301,0.3230596 -0.512958,0.1076861 0.300699,0.3051119 0.07075,0.3051119 -0.371451,0 -0.49527,0.2692158 0,0.7897002 0.229945,0 0.21226,0.2333213 0.477582,-0.2333213 0.17688,-0.4845896 0.353764,-0.2153729 0.07075,-0.1794769 0.566022,-0.1435821 0.318388,0.358955 0.336075,0.1794769 -0.194571,0.3948512 0.300702,-0.089738 0.159192,-0.3948511 -0.389139,-0.4486935 0.159193,0 0.389141,0.323059 0.07075,0.4307472 0.336074,0.3948505 0.08844,-0.5743279 0.176882,-0.08974 c 0.18828,0.1983264 0.336691,0.4408652 0.495269,0.6640678 l 0.58371,0.035898 0.336076,0.2153736 -0.159193,0.23332 -0.336075,0.3051128 -0.495272,0 -0.654462,-0.2153715 -0.336075,0.035898 -0.247635,0.2871644 -0.707528,-0.7179108 -0.495269,-0.1435823 -0.725217,0.089739 -0.636775,0.1794776 C 13.434342,9.4113555 13.062434,9.83382 12.718617,10.267786 l -0.406829,1.005074 0.194572,0.215372 -0.353764,0.520486 0.38914,0.915335 c 0.323806,0.371669 0.649516,0.740828 0.97285,1.11276 l 0.477582,-0.412798 0.19457,0.25127 0.512959,-0.341008 0.176879,0.197425 0.512959,0 0.3007,0.341007 -0.176882,0.610224 0.353763,0.412799 -0.01769,0.717908 0.265322,0.520488 -0.194569,0.448692 c -0.01897,0.321808 -0.03538,0.629372 -0.03538,0.95123 0.156063,0.43604 0.312527,0.87101 0.459894,1.310187 l 0.106129,0.69996 0,0.358958 0.28301,0 0.406829,-0.269218 0.495269,0 0.742905,-0.843543 -0.08844,-0.287166 0.495272,-0.448691 -0.371454,-0.412799 0.442205,-0.358956 0.424516,-0.269217 0.194571,-0.215373 -0.123817,-0.484589 c 0,-0.407973 1e-6,-0.812419 0,-1.220447 l 0.336075,-0.753804 0.424516,-0.466643 0.459893,-1.148656 0,-0.305112 c -0.228856,0.02925 -0.448218,0.05563 -0.672151,0.07179 l 0.459893,-0.466641 0.636774,-0.430747 0.336078,-0.39485 0,-0.430746 c -0.07623,-0.14586 -0.153202,-0.302836 -0.229949,-0.448694 l -0.300699,0.358953 -0.229947,-0.269214 -0.336077,-0.269215 0,-0.5563812 0.389142,0.4486922 0.442205,-0.05384 c 0.199492,0.183762 0.391047,0.347159 0.566021,0.556382 l 0.283019,-0.323069 c 0,-0.347801 -0.38606,-2.0647894 -1.220485,-3.5177594 C 19.861569,5.4411087 18.396531,4.1116987 18.396532,4.1116987 l -0.10613,0.1974253 -0.389141,0.4307461 -0.49527,-0.5204849 0.49527,0 L 18.131207,3.9681167 17.211422,3.7886391 16.73384,3.6091617 z M 6.1032349,3.8424825 5.9263528,4.309124 c 0,0 -0.3096765,0.051877 -0.3891394,0.071791 -1.0148211,0.9488776 -3.0612654,3.007033 -3.5376386,6.8739908 0.018862,0.08965 0.3360757,0.610222 0.3360757,0.610222 l 0.7782801,0.466641 0.7782808,0.215373 0.3360758,0.412799 0.5129578,0.39485 0.300699,-0.05384 0.2122588,0.107687 0,0.07179 -0.2830114,0.807648 -0.2299464,0.341009 0.070753,0.16153 -0.176882,0.64612 0.6544632,1.220447 0.6721514,0.592275 0.3006983,0.430746 -0.035378,0.897388 0.2122581,0.502536 -0.2122581,0.96918 c 0,0 -0.028324,-0.008 0,0.08974 0.028575,0.09776 1.1823986,0.755367 1.2558605,0.699963 0.073211,-0.05644 0.1415068,-0.107687 0.1415068,-0.107687 l -0.070753,-0.215372 0.3006991,-0.287164 0.1061286,-0.305112 0.4775818,-0.161531 0.3714517,-0.933281 -0.1061294,-0.251269 0.2476348,-0.394851 0.5660229,-0.125635 0.2830113,-0.682014 -0.070754,-0.843546 0.4422062,-0.62817 0.07075,-0.646119 C 9.635543,14.951965 9.0402758,14.638286 8.4380746,14.32397 L 8.1373755,13.731695 7.589041,13.606061 7.288342,12.798411 6.5631263,12.88815 5.9263507,12.421508 l -0.6721515,0.592276 0,0.08974 C 5.0528756,13.044561 4.8143791,13.035884 4.6351163,12.924046 L 4.493611,12.4933 l 0,-0.466643 -0.4598928,0.05384 c 0.03701,-0.297239 0.08655,-0.600198 0.1238164,-0.897387 l -0.2653232,0 -0.265323,0.341008 -0.2476348,0.125635 -0.3714517,-0.215374 -0.035377,-0.466643 0.070753,-0.502536 0.5483344,-0.430747 0.4422044,0 L 4.1221586,9.7831885 4.6704923,9.9088214 5.0773207,10.429307 5.1480734,9.567815 5.8556008,8.9755408 6.1032349,8.3473682 6.6338818,8.131996 6.9168925,7.7012494 7.5890446,7.5756148 7.9251196,7.0730776 c -0.3326471,0 -0.6755792,0 -1.0082271,0 l 0.6367761,-0.3051118 0.4422023,0 L 8.5618945,6.5705411 8.6680239,7.1269212 8.9156585,6.7320703 8.6326471,6.5346452 8.7034006,6.3013252 8.4734541,6.0859511 8.225818,6.0141603 8.2965722,5.7449443 8.102001,5.3680422 7.6597966,5.5475192 7.7305493,5.2065124 7.2175915,4.9014 6.8107638,5.61931 6.8461426,5.8705787 6.4393149,6.0500564 6.1916802,6.6064365 6.0678624,6.0859511 5.3780227,5.7987874 5.2542056,5.4039371 6.1916802,4.8655046 6.5985079,4.4706538 6.6338867,4.0040123 6.4039403,3.8783778 6.1032405,3.8424831 l -5.6e-6,-6e-7 z m 7.5882351,0.8614934 0,0.2871621 0.159195,0.179478 0,0.4307462 -0.08844,0.5743278 0.459893,-0.089739 0.336075,-0.3410068 -0.300698,-0.2871646 C 14.159978,5.1942962 14.061153,4.9566909 13.939105,4.7039759 l -0.247635,0 z m -0.389141,0.5743263 -0.28301,0.08974 0.07075,0.5204843 0.371452,-0.1974269 -0.159196,-0.4127974 0,0 z m 5.182641,4.7202601 0.424519,0.5025347 0.512957,1.112763 0.318385,0.358954 -0.159191,0.376905 0.283011,0.341006 c -0.129876,0.0087 -0.255652,0.01795 -0.389141,0.01795 -0.242501,-0.517049 -0.434421,-1.038487 -0.619086,-1.579404 l -0.318389,-0.358955 -0.176881,-0.646119 0.123816,-0.1256337 0,-2e-6 z"
       inkscape:connector-curvature="0"
       id="path6534"
       style="opacity:0.4;fill:#000000;fill-opacity:1;fill-rule:nonzero;stroke:none" />
    <path
       d="m 21.499999,11.999663 c 0,5.246874 -4.253609,9.500336 -9.499879,9.500336 -5.2467526,0 -9.5001201,-4.253509 -9.5001201,-9.500336 0,-5.2466312 4.2533675,-9.4996623 9.5001201,-9.4996623 5.24627,0 9.499879,4.2530311 9.499879,9.4996623 l 0,0 z"
       inkscape:connector-curvature="0"
       id="path2463"
       style="opacity:0.4;fill:none;stroke:url(#linearGradient2485);stroke-width:0.99999994;stroke-miterlimit:4;stroke-opacity:1;stroke-dasharray:none" />
  </g>
</svg>

<?xml version="1.0" encoding="UTF-8" standalone="no"?>
<!-- Created with Inkscape (http://www.inkscape.org/) -->
<svg
   xmlns:svg="http://www.w3.org/2000/svg"
   xmlns="http://www.w3.org/2000/svg"
   xmlns:xlink="http://www.w3.org/1999/xlink"
   version="1.0"
   width="24"
   height="24"
   id="svg2509">
  <defs
     id="defs2511">
    <linearGradient
       id="linearGradient8838">
      <stop
         id="stop8840"
         style="stop-color:#000000;stop-opacity:1"
         offset="0" />
      <stop
         id="stop8842"
         style="stop-color:#000000;stop-opacity:0"
         offset="1" />
    </linearGradient>
    <radialGradient
       cx="62.625"
       cy="4.625"
       r="10.625"
       fx="62.625"
       fy="4.625"
       id="radialGradient2493"
       xlink:href="#linearGradient8838"
       gradientUnits="userSpaceOnUse"
       gradientTransform="matrix(1.1294118,0,0,0.2823525,-58.729414,19.694118)" />
    <linearGradient
       id="linearGradient3707-319-631">
      <stop
         id="stop4637"
         style="stop-color:#254b6d;stop-opacity:1"
         offset="0" />
      <stop
         id="stop4639"
         style="stop-color:#415b73;stop-opacity:1"
         offset="0.5" />
      <stop
         id="stop4641"
         style="stop-color:#6195b5;stop-opacity:1"
         offset="1" />
    </linearGradient>
    <linearGradient
       x1="20"
       y1="43"
       x2="20"
       y2="2.6887112"
       id="linearGradient2507"
       xlink:href="#linearGradient3707-319-631"
       gradientUnits="userSpaceOnUse"
       gradientTransform="matrix(0.5277005,0,0,0.5276885,-0.8746521,-0.4544475)" />
    <linearGradient
       id="linearGradient2867-449-88-871-390-598-476-591-434-148">
      <stop
         id="stop4627"
         style="stop-color:#51cfee;stop-opacity:1"
         offset="0" />
      <stop
         id="stop4629"
         style="stop-color:#49a3d2;stop-opacity:1"
         offset="0.26238" />
      <stop
         id="stop4631"
         style="stop-color:#3470b4;stop-opacity:1"
         offset="0.704952" />
      <stop
         id="stop4633"
         style="stop-color:#273567;stop-opacity:1"
         offset="1" />
    </linearGradient>
    <radialGradient
       cx="61.240059"
       cy="-8.7256308"
       r="9.7552834"
       fx="61.240059"
       fy="-8.7256308"
       id="radialGradient2505"
       xlink:href="#linearGradient2867-449-88-871-390-598-476-591-434-148"
       gradientUnits="userSpaceOnUse"
       gradientTransform="matrix(0,1.8972225,-1.8972215,0,-4.5544529,-111.73788)" />
    <linearGradient
       id="linearGradient4873">
      <stop
         id="stop4875"
         style="stop-color:#ffffff;stop-opacity:1"
         offset="0" />
      <stop
         id="stop4877"
         style="stop-color:#ffffff;stop-opacity:0"
         offset="1" />
    </linearGradient>
    <linearGradient
       x1="63.397362"
       y1="-12.489107"
       x2="63.397362"
       y2="5.4675598"
       id="linearGradient2485"
       xlink:href="#linearGradient4873"
       gradientUnits="userSpaceOnUse"
       gradientTransform="matrix(1.0862728,0,0,1.0862481,-55.56661,15.813638)" />
  </defs>
  <g
     id="layer1">
    <path
       d="M 24,21 C 24,22.656854 18.627417,24 12,24 C 5.3725828,24 -2.5e-07,22.656854 -2.5e-07,21 C -2.5e-07,19.343146 5.3725828,18 12,18 C 18.627417,18 24,19.343146 24,21 L 24,21 z"
       id="path8836"
       style="opacity:0.3;fill:url(#radialGradient2493);fill-opacity:1;fill-rule:evenodd;stroke:none;stroke-width:0.99999988;stroke-linecap:butt;stroke-linejoin:round;marker:none;marker-start:none;marker-mid:none;marker-end:none;stroke-miterlimit:4;stroke-dasharray:none;stroke-dashoffset:0;stroke-opacity:1;visibility:visible;display:inline;overflow:visible" />
    <path
       d="M 22.500024,11.999616 C 22.500024,17.798799 17.798662,22.5 12.000144,22.5 C 6.2010956,22.5 1.5000001,17.798745 1.5000001,11.999616 C 1.5000001,6.2006982 6.2010956,1.4999752 12.000144,1.4999752 C 17.798662,1.4999752 22.500024,6.2006982 22.500024,11.999616 L 22.500024,11.999616 z"
       id="path6495"
       style="fill:url(#radialGradient2505);fill-opacity:1;fill-rule:nonzero;stroke:url(#linearGradient2507);stroke-width:0.99999994;stroke-miterlimit:4;stroke-dasharray:none" />
    <path
       d="M 12.187974,1.9041252 L 10.949801,2.047707 L 9.5878085,2.42461 C 9.703826,2.3834051 9.8213585,2.3384272 9.9415727,2.2989756 L 9.782379,2.0118117 L 9.2517342,2.1015504 L 8.9864098,2.352819 L 8.5795814,2.4066622 L 8.2081297,2.5861398 L 8.0312483,2.6758785 L 7.9781832,2.7476695 L 7.7128609,2.8015128 L 7.5536686,3.1425201 L 7.3414086,2.7117739 L 7.2706565,2.8912516 L 7.3060353,3.3758408 L 6.9699596,3.6630049 L 6.7753899,4.1834897 L 7.1822191,4.1834897 L 7.3414113,3.8424825 L 7.3944771,3.7168481 C 7.5733557,3.5884928 7.7429341,3.4455474 7.9251225,3.3219976 L 8.3496386,3.4655796 C 8.6260304,3.6561145 8.9043642,3.8496622 9.1809845,4.0399077 L 9.5878085,3.6630049 L 9.1279159,3.4655796 L 8.9156578,3.0348336 L 8.1373777,2.9450948 L 8.1196887,2.8553561 L 8.4557636,2.9271471 L 8.6503348,2.7297217 L 9.0748501,2.6399829 C 9.175311,2.5904068 9.2741359,2.5546995 9.3755498,2.5143488 L 9.1102262,2.7656172 L 10.065389,3.4296842 L 10.065389,3.8245348 L 9.6939365,4.2014375 L 10.189207,5.2065124 L 10.525282,5.0090857 L 10.9498,4.3450196 C 11.546638,4.1577869 12.084548,3.939916 12.647868,3.6809526 L 12.612489,3.9322212 L 12.895498,4.1296464 L 13.390768,3.7886391 L 13.143134,3.5014751 L 12.807057,3.6989004 L 12.700928,3.6630055 C 12.725306,3.6517029 12.747198,3.6385991 12.771681,3.6271108 L 13.266953,2.3348712 L 12.187974,1.9041252 z M 7.3414086,3.8424825 L 7.748237,4.1296464 L 8.0843126,4.1296464 L 8.0843126,3.7886391 L 7.677485,3.6091617 L 7.3414086,3.8424825 L 7.3414086,3.8424825 z M 16.73384,3.6091617 L 16.008623,3.7886391 L 15.548733,4.0937511 L 15.548733,4.3629669 L 14.823514,4.8296082 L 14.965021,5.529572 L 15.389538,5.224459 L 15.654861,5.529572 L 15.955561,5.7090494 L 16.150129,5.1885636 L 16.044002,4.8834524 L 16.150129,4.6680784 L 16.574646,4.2732286 L 16.769217,4.2732286 L 16.574646,4.7039759 L 16.574646,5.0988252 C 16.74962,5.0504985 16.926233,5.0316771 17.105292,5.0090857 L 16.610023,5.3680422 L 16.574644,5.5834141 L 16.008622,6.0680045 L 15.424911,5.9244213 L 15.424911,5.5834141 L 15.159589,5.762892 L 15.283407,6.0680045 L 14.858889,6.0680045 L 14.628943,6.4628549 L 14.345933,6.7859145 L 13.832975,6.8936006 L 14.133674,7.1987125 L 14.204426,7.5038244 L 13.832975,7.5038244 L 13.337705,7.7730402 L 13.337705,8.5627404 L 13.56765,8.5627404 L 13.77991,8.7960617 L 14.257492,8.5627404 L 14.434372,8.0781508 L 14.788136,7.8627779 L 14.858889,7.683301 L 15.424911,7.5397189 L 15.743299,7.8986739 L 16.079374,8.0781508 L 15.884803,8.473002 L 16.185505,8.3832635 L 16.344697,7.9884124 L 15.955558,7.5397189 L 16.114751,7.5397189 L 16.503892,7.8627779 L 16.574644,8.2935251 L 16.910718,8.6883756 L 16.999161,8.1140477 L 17.176043,8.0243078 C 17.364323,8.2226342 17.512734,8.465173 17.671312,8.6883756 L 18.255022,8.7242738 L 18.591098,8.9396474 L 18.431905,9.1729674 L 18.09583,9.4780802 L 17.600558,9.4780802 L 16.946096,9.2627087 L 16.610021,9.2986068 L 16.362386,9.5857712 L 15.654858,8.8678604 L 15.159589,8.7242781 L 14.434372,8.8140172 L 13.797597,8.9934948 C 13.434342,9.4113555 13.062434,9.83382 12.718617,10.267786 L 12.311788,11.27286 L 12.50636,11.488232 L 12.152596,12.008718 L 12.541736,12.924053 C 12.865542,13.295722 13.191252,13.664881 13.514586,14.036813 L 13.992168,13.624015 L 14.186738,13.875285 L 14.699697,13.534277 L 14.876576,13.731702 L 15.389535,13.731702 L 15.690235,14.072709 L 15.513353,14.682933 L 15.867116,15.095732 L 15.849427,15.81364 L 16.114749,16.334128 L 15.92018,16.78282 C 15.901211,17.104628 15.884801,17.412192 15.884801,17.73405 C 16.040864,18.17009 16.197328,18.60506 16.344695,19.044237 L 16.450824,19.744197 L 16.450824,20.103155 L 16.733834,20.103155 L 17.140663,19.833937 L 17.635932,19.833937 L 18.378837,18.990394 L 18.290395,18.703228 L 18.785667,18.254537 L 18.414213,17.841738 L 18.856418,17.482782 L 19.280934,17.213565 L 19.475505,16.998192 L 19.351688,16.513603 C 19.351688,16.10563 19.351689,15.701184 19.351688,15.293156 L 19.687763,14.539352 L 20.112279,14.072709 L 20.572172,12.924053 L 20.572172,12.618941 C 20.343316,12.648193 20.123954,12.674569 19.900021,12.690733 L 20.359914,12.224092 L 20.996688,11.793345 L 21.332766,11.398495 L 21.332766,10.967749 C 21.25654,10.821889 21.179564,10.664913 21.102817,10.519055 L 20.802118,10.878008 L 20.572171,10.608794 L 20.236094,10.339579 L 20.236094,9.7831978 L 20.625236,10.23189 L 21.067441,10.178047 C 21.266933,10.361809 21.458488,10.525206 21.633462,10.734429 L 21.916481,10.41136 C 21.916481,10.063559 21.530421,8.3465706 20.695996,6.8936006 C 19.861569,5.4411087 18.396531,4.1116987 18.396532,4.1116987 L 18.290402,4.309124 L 17.901261,4.7398701 L 17.405991,4.2193852 L 17.901261,4.2193852 L 18.131207,3.9681167 L 17.211422,3.7886391 L 16.73384,3.6091617 z M 6.1032349,3.8424825 L 5.9263528,4.309124 C 5.9263528,4.309124 5.6166763,4.3610007 5.5372134,4.3809152 C 4.5223923,5.3297928 2.475948,7.3879482 1.9995748,11.254906 C 2.0184368,11.34456 2.3356505,11.865128 2.3356505,11.865128 L 3.1139306,12.331769 L 3.8922114,12.547142 L 4.2282872,12.959941 L 4.741245,13.354791 L 5.041944,13.300949 L 5.2542028,13.408636 L 5.2542028,13.480425 L 4.9711914,14.288073 L 4.741245,14.629082 L 4.8119976,14.790612 L 4.6351156,15.436732 L 5.2895788,16.657179 L 5.9617302,17.249454 L 6.2624285,17.6802 L 6.2270504,18.577588 L 6.4393085,19.080124 L 6.2270504,20.049304 C 6.2270504,20.049304 6.1987265,20.041335 6.2270504,20.139041 C 6.2556255,20.236798 7.409449,20.894408 7.4829109,20.839004 C 7.556122,20.782568 7.6244177,20.731317 7.6244177,20.731317 L 7.5536651,20.515945 L 7.8543642,20.228781 L 7.9604928,19.923669 L 8.4380746,19.762138 L 8.8095263,18.828857 L 8.7033969,18.577588 L 8.9510317,18.182737 L 9.5170546,18.057102 L 9.8000659,17.375088 L 9.7293118,16.531542 L 10.171518,15.903372 L 10.242269,15.257253 C 9.635543,14.951965 9.0402758,14.638286 8.4380746,14.32397 L 8.1373755,13.731695 L 7.589041,13.606061 L 7.288342,12.798411 L 6.5631263,12.88815 L 5.9263507,12.421508 L 5.2541992,13.013784 L 5.2541992,13.103524 C 5.0528756,13.044561 4.8143791,13.035884 4.6351163,12.924046 L 4.493611,12.4933 L 4.493611,12.026657 L 4.0337182,12.0805 C 4.070728,11.783261 4.1202686,11.480302 4.1575346,11.183113 L 3.8922114,11.183113 L 3.6268884,11.524121 L 3.3792536,11.649756 L 3.0078019,11.434382 L 2.9724252,10.967739 L 3.043178,10.465203 L 3.5915124,10.034456 L 4.0337168,10.034456 L 4.1221586,9.7831885 L 4.6704923,9.9088214 L 5.0773207,10.429307 L 5.1480734,9.567815 L 5.8556008,8.9755408 L 6.1032349,8.3473682 L 6.6338818,8.131996 L 6.9168925,7.7012494 L 7.5890446,7.5756148 L 7.9251196,7.0730776 C 7.5924725,7.0730776 7.2495404,7.0730776 6.9168925,7.0730776 L 7.5536686,6.7679658 L 7.9958709,6.7679658 L 8.5618945,6.5705411 L 8.6680239,7.1269212 L 8.9156585,6.7320703 L 8.6326471,6.5346452 L 8.7034006,6.3013252 L 8.4734541,6.0859511 L 8.225818,6.0141603 L 8.2965722,5.7449443 L 8.102001,5.3680422 L 7.6597966,5.5475192 L 7.7305493,5.2065124 L 7.2175915,4.9014 L 6.8107638,5.61931 L 6.8461426,5.8705787 L 6.4393149,6.0500564 L 6.1916802,6.6064365 L 6.0678624,6.0859511 L 5.3780227,5.7987874 L 5.2542056,5.4039371 L 6.1916802,4.8655046 L 6.5985079,4.4706538 L 6.6338867,4.0040123 L 6.4039403,3.8783778 L 6.1032405,3.8424831 L 6.1032349,3.8424825 z M 13.69147,4.7039759 L 13.69147,4.991138 L 13.850665,5.170616 L 13.850665,5.6013622 L 13.762224,6.17569 L 14.222117,6.0859511 L 14.558192,5.7449443 L 14.257494,5.4577797 C 14.159978,5.1942962 14.061153,4.9566909 13.939105,4.7039759 L 13.69147,4.7039759 z M 13.302329,5.2783022 L 13.019319,5.3680422 L 13.090073,5.8885265 L 13.461525,5.6910996 L 13.302329,5.2783022 L 13.302329,5.2783022 z M 18.48497,9.9985623 L 18.909489,10.501097 L 19.422446,11.61386 L 19.740831,11.972814 L 19.58164,12.349719 L 19.864651,12.690725 C 19.734775,12.699447 19.608999,12.708676 19.47551,12.708676 C 19.233009,12.191627 19.041089,11.670189 18.856424,11.129272 L 18.538035,10.770317 L 18.361154,10.124198 L 18.48497,9.9985643 L 18.48497,9.9985623 z"
       id="path6534"
       style="opacity:0.4;fill:#000000;fill-opacity:1;fill-rule:nonzero;stroke:none" />
    <path
       d="M 21.499999,11.999663 C 21.499999,17.246537 17.24639,21.499999 12.00012,21.499999 C 6.7533674,21.499999 2.4999999,17.24649 2.4999999,11.999663 C 2.4999999,6.7530318 6.7533674,2.5000007 12.00012,2.5000007 C 17.24639,2.5000007 21.499999,6.7530318 21.499999,11.999663 L 21.499999,11.999663 z"
       id="path2463"
       style="opacity:0.4;fill:none;fill-opacity:1;fill-rule:nonzero;stroke:url(#linearGradient2485);stroke-width:0.99999994;stroke-miterlimit:4;stroke-dasharray:none;stroke-opacity:1" />
  </g>
</svg>
